lib/brands/logos/american-express.svg

<svg xmlns="http://www.w3.org/2000/svg" fill="none" aria-hidden="true" viewBox="0 0 116 116"><g id="American Express"><g id="layer1"><path id="path3078" fill="#016FD0" d="M3 3.00002H113V62.3813L107.555 70.8886L113 78.4602V113H3V57.0217L6.40294 53.1083L3 49.365V3.00002Z"/><path id="path3082" fill="white" d="M24.3534 79.6512V62.3813H42.639L44.6009 64.9388L46.6276 62.3813H113V78.4602C113 78.4602 111.264 79.6339 109.257 79.6512H72.505L70.2931 76.9289V79.6512H63.0448V75.0041C63.0448 75.0041 62.0547 75.6527 59.9141 75.6527H57.447V79.6512H46.4725L44.5134 77.0388L42.5243 79.6512H24.3534Z"/><path id="path3080" fill="white" d="M3 49.365L7.12348 39.7518H14.2546L16.5947 45.1367V39.7518H25.4594L26.8525 43.6438L28.203 39.7518H67.9961V41.7084C67.9961 41.7084 70.088 39.7518 73.5259 39.7518L86.4373 39.7969L88.737 45.1114V39.7518H96.1554L98.1972 42.8045V39.7518H105.684V57.0217H98.1972L96.2405 53.959V57.0217H85.3412L84.2451 54.2993H81.315L80.2368 57.0217H72.8453C69.8871 57.0217 67.9961 55.1049 67.9961 55.1049V57.0217H56.8515L54.6396 54.2993V57.0217H13.1982L12.1029 54.2993H9.18211L8.09453 57.0217H3V49.365Z"/><path id="path3046" fill="#016FD0" d="M8.58292 41.8808L3.02124 54.8119H6.64218L7.66838 52.2225H13.6342L14.655 54.8119H18.3557L12.7994 41.8808H8.58292ZM10.6406 44.8902L12.4591 49.4151H8.81687L10.6406 44.8902V44.8902Z"/><path id="path3048" fill="#016FD0" d="M18.7386 54.8097V41.8786L23.8842 41.8977L26.877 50.2349L29.7982 41.8786H34.9026V54.8097H31.6698V45.2815L28.243 54.8097H25.4078L21.9714 45.2815V54.8097H18.7386Z"/><path id="path3050" fill="#016FD0" d="M37.1145 54.8097V41.8786H47.6636V44.7711H40.3813V46.983H47.4935V49.7053H40.3813V52.0023H47.6636V54.8097H37.1145Z"/><path id="path3052" fill="#016FD0" d="M49.5352 41.8808V54.8119H52.7679V50.218H54.1291L58.0053 54.8119H61.9559L57.7022 50.0478C59.4479 49.9005 61.2487 48.4022 61.2487 46.076C61.2487 43.3548 59.1129 41.8808 56.7292 41.8808H49.5352V41.8808ZM52.7679 44.7733H56.4633C57.3498 44.7733 57.9947 45.4667 57.9947 46.1344C57.9947 46.9935 57.1591 47.4956 56.5112 47.4956H52.7679V44.7733V44.7733Z"/><path id="path3054" fill="#016FD0" d="M65.8693 54.8097H62.5685V41.8786H65.8693V54.8097Z"/><path id="path3056" fill="#016FD0" d="M73.696 54.8097H72.9835C69.5362 54.8097 67.4431 52.0938 67.4431 48.3973C67.4431 44.6096 69.5127 41.8786 73.8662 41.8786H77.4393V44.9412H73.7355C71.9683 44.9412 70.7184 46.3204 70.7184 48.4292C70.7184 50.9335 72.1476 51.9853 74.2065 51.9853H75.0572L73.696 54.8097Z"/><path id="path3058" fill="#016FD0" d="M80.7305 41.8808L75.1688 54.8119H78.7898L79.816 52.2225H85.7817L86.8026 54.8119H90.5033L84.947 41.8808H80.7305ZM82.7882 44.8902L84.6067 49.4151H80.9645L82.7882 44.8902Z"/><path id="path3060" fill="#016FD0" d="M90.8809 54.8097V41.8786H94.991L100.239 50.0031V41.8786H103.472V54.8097H99.4946L94.1137 46.4726V54.8097H90.8809Z"/><path id="path3062" fill="#016FD0" d="M26.5653 77.4393V64.5081H37.1144V67.4006H29.8321V69.6125H36.9443V72.3349H29.8321V74.6319H37.1144V77.4393H26.5653Z"/><path id="path3064" fill="#016FD0" d="M78.2559 77.4392V64.5081H88.805V67.4006H81.5227V69.6125H88.6008V72.3348H81.5227V74.6318H88.805V77.4392H78.2559Z"/><path id="path3066" fill="#016FD0" d="M37.5239 77.4393L42.6602 71.0535L37.4016 64.5081H41.4745L44.6063 68.5544L47.7487 64.5081H51.662L46.4726 70.9737L51.6183 77.4393H47.5461L44.5052 73.4568L41.5383 77.4393H37.5239Z"/><path id="path3068" fill="#016FD0" d="M52.0022 64.5103V77.4414H55.3201V73.3579H58.723C61.6024 73.3579 63.7849 71.8303 63.7849 68.8596C63.7849 66.3987 62.0731 64.5103 59.1431 64.5103H52.0022V64.5103ZM55.3201 67.4347H58.9038C59.834 67.4347 60.4989 68.0048 60.4989 68.9235C60.4989 69.7865 59.8373 70.4122 58.8931 70.4122H55.3201V67.4347Z"/><path id="path3072" fill="#016FD0" d="M65.1887 64.5081V77.4393H68.4215V72.8453H69.7827L73.6588 77.4393H77.6094L73.3558 72.6752C75.1015 72.5278 76.9023 71.0295 76.9023 68.7033C76.9023 65.9821 74.7665 64.5081 72.3827 64.5081H65.1887V64.5081ZM68.4215 67.4006H72.1169C73.0034 67.4006 73.6482 68.094 73.6482 68.7618C73.6482 69.6209 72.8127 70.123 72.1647 70.123H68.4215V67.4006V67.4006Z"/><path id="path3074" fill="#016FD0" d="M90.3023 77.4393V74.6319H96.7722C97.7295 74.6319 98.144 74.1145 98.144 73.5472C98.144 73.0036 97.7308 72.454 96.7722 72.454H93.8485C91.3072 72.454 89.8918 70.9056 89.8918 68.581C89.8918 66.5076 91.1879 64.5081 94.9644 64.5081H101.26L99.8986 67.4176H94.4539C93.4131 67.4176 93.0927 67.9638 93.0927 68.4853C93.0927 69.0214 93.4887 69.6125 94.2838 69.6125H97.3464C100.179 69.6125 101.409 71.2195 101.409 73.3239C101.409 75.5863 100.039 77.4393 97.1922 77.4393H90.3023Z"/><path id="path3076" fill="#016FD0" d="M102.167 77.4393V74.6319H108.637C109.595 74.6319 110.009 74.1145 110.009 73.5472C110.009 73.0036 109.596 72.454 108.637 72.454H105.714C103.172 72.454 101.757 70.9056 101.757 68.581C101.757 66.5076 103.053 64.5081 106.829 64.5081H113.125L111.764 67.4176H106.319C105.278 67.4176 104.958 67.9638 104.958 68.4853C104.958 69.0214 105.354 69.6125 106.149 69.6125H109.212C112.044 69.6125 113.274 71.2195 113.274 73.3239C113.274 75.5863 111.904 77.4393 109.057 77.4393H102.167Z"/></g></g></svg>

<svg xmlns="http://www.w3.org/2000/svg" fill="none" aria-hidden="true" viewBox="0 0 116 116"><path fill="#016FD0" d="M3 3h110v59.381l-5.445 8.508L113 78.46V113H3V57.022l3.403-3.914L3 49.365V3Z"/><path fill="#fff" d="M24.353 79.651v-17.27H42.64l1.962 2.558 2.027-2.558H113v16.08s-1.736 1.173-3.743 1.19H72.505l-2.212-2.722v2.722h-7.248v-4.647s-.99.649-3.13.649h-2.468v3.998H46.472l-1.959-2.612-1.989 2.612h-18.17ZM3 49.365l4.123-9.613h7.132l2.34 5.385v-5.385h8.864l1.393 3.892 1.351-3.892h39.793v1.956s2.092-1.956 5.53-1.956l12.911.045 2.3 5.314v-5.36h7.418l2.042 3.053v-3.052h7.487v17.27h-7.487l-1.957-3.063v3.063H85.341l-1.096-2.723h-2.93l-1.078 2.723h-7.392c-2.958 0-4.849-1.917-4.849-1.917v1.917H56.852l-2.212-2.723v2.723H13.198l-1.095-2.723h-2.92l-1.088 2.723H3v-7.657Z"/><path fill="#016FD0" d="M8.583 41.88 3.02 54.813h3.621l1.026-2.59h5.966l1.021 2.59h3.7L12.8 41.88H8.583Zm2.058 3.01 1.818 4.525H8.817l1.824-4.525Zm8.098 9.92V41.879l5.145.019 2.993 8.337 2.921-8.356h5.105v12.93H31.67v-9.527l-3.427 9.528h-2.835l-3.438-9.53v9.529h-3.23Zm18.375 0V41.879h10.55v2.892H40.38v2.212h7.112v2.722H40.38v2.297h7.283v2.808h-10.55Zm12.421-12.93v12.932h3.233v-4.594h1.361l3.876 4.594h3.95l-4.253-4.764a3.938 3.938 0 0 0 3.547-3.972c0-2.721-2.136-4.195-4.52-4.195h-7.194Zm3.233 2.893h3.695c.887 0 1.532.694 1.532 1.361 0 .86-.836 1.362-1.484 1.362h-3.743v-2.723ZM65.87 54.81h-3.302V41.879h3.301v12.93Zm7.826 0h-.712c-3.448 0-5.54-2.716-5.54-6.413 0-3.787 2.069-6.518 6.422-6.518h3.573v3.062h-3.703c-1.768 0-3.018 1.38-3.018 3.488 0 2.505 1.43 3.556 3.489 3.556h.85l-1.361 2.825Zm7.034-12.93-5.56 12.933h3.62l1.027-2.59h5.966l1.02 2.59h3.701L84.947 41.88h-4.216Zm2.058 3.01 1.819 4.525h-3.642l1.823-4.525Zm8.092 9.92V41.879h4.111l5.248 8.124V41.88h3.233v12.93h-3.977l-5.381-8.336v8.337H90.88ZM26.565 77.44V64.507h10.55V67.4h-7.283v2.212h7.112v2.722h-7.112v2.297h7.282v2.807H26.565Zm51.691 0V64.507h10.549V67.4h-7.282v2.212H88.6v2.722h-7.078v2.297h7.282v2.807h-10.55Zm-40.732 0 5.136-6.386-5.258-6.546h4.072l3.132 4.046 3.143-4.046h3.913l-5.19 6.466 5.146 6.465h-4.072l-3.04-3.982-2.968 3.982h-4.014Zm14.478-12.93v12.931h3.318v-4.083h3.403c2.88 0 5.062-1.528 5.062-4.498 0-2.461-1.712-4.35-4.642-4.35h-7.14Zm3.318 2.925h3.584c.93 0 1.595.57 1.595 1.489 0 .862-.662 1.488-1.606 1.488H55.32v-2.977Zm9.869-2.927V77.44h3.233v-4.594h1.36l3.877 4.594h3.95l-4.253-4.764a3.938 3.938 0 0 0 3.546-3.972c0-2.72-2.136-4.195-4.52-4.195H65.19Zm3.233 2.893h3.695c.886 0 1.531.693 1.531 1.36 0 .86-.835 1.362-1.483 1.362H68.42v-2.722Zm21.88 10.039v-2.808h6.47c.957 0 1.372-.517 1.372-1.085 0-.543-.413-1.093-1.372-1.093h-2.924c-2.54 0-3.956-1.548-3.956-3.873 0-2.073 1.296-4.073 5.072-4.073h6.296l-1.361 2.91h-5.445c-1.04 0-1.361.546-1.361 1.067 0 .536.396 1.127 1.19 1.127h3.063c2.833 0 4.063 1.608 4.063 3.712 0 2.262-1.37 4.115-4.217 4.115h-6.89Zm11.865 0v-2.808h6.47c.958 0 1.372-.517 1.372-1.085 0-.543-.413-1.093-1.372-1.093h-2.923c-2.542 0-3.957-1.548-3.957-3.873 0-2.073 1.296-4.073 5.072-4.073h6.296l-1.361 2.91h-5.445c-1.041 0-1.361.546-1.361 1.067 0 .536.396 1.127 1.191 1.127h3.063c2.832 0 4.062 1.608 4.062 3.712 0 2.262-1.37 4.115-4.217 4.115h-6.89Z"/></svg>
